Newaita-dark/apps/48/k9-copy.svg

<svg height="48pt" viewBox="0 0 48 48" width="48pt" xmlns="http://www.w3.org/2000/svg" xmlns:xlink="http://www.w3.org/1999/xlink"><linearGradient id="a"><stop offset="0" stop-opacity=".313726"/><stop offset=".222222" stop-opacity=".27451"/><stop offset="1" stop-opacity="0"/></linearGradient><radialGradient id="b" cx="450.908936" cy="189.579361" gradientTransform="matrix(.00000026 -.117199 -.210958 -.00000015 71.249998 95.392994)" gradientUnits="userSpaceOnUse" r="21.166656" xlink:href="#a"/><radialGradient id="c" cx="450.908936" cy="189.579361" gradientTransform="matrix(-.00000026 .117199 .210958 .00000015 -19.155178 -11.291223)" gradientUnits="userSpaceOnUse" r="21.166656" xlink:href="#a"/><radialGradient id="d" cx="450.908936" cy="189.579361" gradientTransform="matrix(-.00000026 -.117199 .210958 -.00000015 -19.155178 95.392994)" gradientUnits="userSpaceOnUse" r="21.166656" xlink:href="#a"/><radialGradient id="e" cx="450.908936" cy="189.579361" gradientTransform="matrix(.00000026 .117199 -.210958 .00000015 71.249995 -11.291224)" gradientUnits="userSpaceOnUse" r="21.166656" xlink:href="#a"/><linearGradient id="f" gradientTransform="matrix(.0200401 0 0 .093759 18.698079 20.158175)" gradientUnits="userSpaceOnUse" x1="255.323059" x2="255.323044" y1="233.5" y2="254.666656"><stop offset="0" stop-opacity=".27451"/><stop offset="1" stop-opacity="0"/></linearGradient><linearGradient id="g" gradientUnits="userSpaceOnUse" x1="960.000112" x2="960.000112" y1="175.11804050918" y2="1695.118238"><stop offset="0" stop-color="#e0e0e0"/><stop offset="1" stop-color="#bdbdbd"/></linearGradient><linearGradient id="h" gradientUnits="userSpaceOnUse" x1="960.000112" x2="960.000112" y1="1255.11822698163" y2="615.118112"><stop offset="0" stop-color="#f5f5f5"/><stop offset="1" stop-color="#e0e0e0"/></linearGradient><linearGradient id="i" gradientUnits="userSpaceOnUse" x1="30.760783" x2="30.760783" y1="42.32835707096" y2="26.45187707096"><stop offset="0" stop-color="#26c6da"/><stop offset="1" stop-color="#4dd0e1"/></linearGradient><path d="m31.753906 42.050781h3.96875v-1.984375h-3.96875zm0 0" fill="url(#b)"/><path d="m20.339844 42.050781h-3.96875v1.984375h3.96875zm0 0" fill="url(#c)"/><path d="m20.339844 42.050781h-3.96875v-1.984375h3.96875zm0 0" fill="url(#d)"/><path d="m31.753906 42.050781h3.96875v1.984375h-3.96875zm0 0" fill="url(#e)"/><path d="m20.339844 41.554688h11.414062v2.480468h-11.414062zm0 0" fill="url(#f)"/><path d="m960.065849 175.101398c-421.062175 0-760.084936 339.022761-760.084936 760.084936 0 420.90471 339.022761 759.92747 760.084936 759.92747 420.90471 0 759.927471-339.02276 759.927471-759.92747 0-421.062175-339.022761-760.084936-759.927471-760.084936zm0 599.94274c88.495491 0 159.984731 71.48924 159.984731 160.142196 0 88.495491-71.48924 159.984731-159.984731 159.984731-88.652956 0-160.142196-71.48924-160.142196-159.984731 0-88.652956 71.48924-160.142196 160.142196-160.142196zm0 0" fill="url(#g)" stroke="#333" stroke-linecap="round" stroke-width="11.338583" transform="scale(.0248071)"/><path d="m23.816406 42.050781c-10.445312 0-18.855468-8.410156-18.855468-18.851562 0-.0625 0-.125 0-.1875.101562 10.359375 8.472656 18.667969 18.855468 18.667969 10.382813 0 18.753906-8.308594 18.851563-18.667969v.1875c0 10.441406-8.410157 18.851562-18.851563 18.851562zm0 0" fill-opacity=".196078"/><g fill="#fff"><path d="m10.488281 9.871094c-1.09375 1.117187-2.070312 2.390625-2.890625 3.808594-.820312 1.421874-1.433594 2.902343-1.855468 4.410156l4.253906 1.136718c.660156-2.386718 1.917968-4.527343 3.601562-6.246093zm3.898438 3.898437c-1.546875 1.582031-2.699219 3.546875-3.308594 5.75l9.050781 2.421875c.085938-.277344.207032-.554687.359375-.820312.152344-.261719.332031-.503906.53125-.71875zm0 0" fill-opacity=".392157"/><path d="m23.816406 4.34375c-10.445312 0-18.855468 8.410156-18.855468 18.855469v.183593c.101562-10.359374 8.472656-18.667968 18.855468-18.667968 10.382813 0 18.753906 8.308594 18.851563 18.667968 0-.0625 0-.125 0-.183593 0-10.445313-8.410157-18.855469-18.851563-18.855469zm0 0" fill-opacity=".588235"/><path d="m27.71875 24.269531c-.085938.28125-.207031.554688-.359375.820313s-.332031.503906-.53125.71875l6.632813 6.636718c1.546874-1.582031 2.703124-3.550781 3.308593-5.75zm10.136719 2.714844c-.660157 2.390625-1.917969 4.53125-3.605469 6.25l3.109375 3.109375c1.09375-1.117188 2.070313-2.390625 2.890625-3.8125.820312-1.417969 1.433594-2.898438 1.855469-4.40625zm0 0" fill-opacity=".392157"/></g><path d="m23.816406 4.203125c-10.523437 0-18.996094 8.472656-18.996094 18.996094 0 10.519531 8.472657 18.992187 18.996094 18.992187 10.519532 0 18.992188-8.472656 18.992188-18.992187 0-10.523438-8.472656-18.996094-18.992188-18.996094zm0 .28125c10.367188 0 18.710938 8.34375 18.710938 18.714844 0 10.367187-8.34375 18.710937-18.710938 18.710937-10.371094 0-18.714844-8.34375-18.714844-18.710937 0-10.371094 8.34375-18.714844 18.714844-18.714844zm0 0" fill="#212121"/><path d="m960.065849 615.059407c-177.305912 0-320.126926 142.821015-320.126926 320.126927 0 177.148447 142.821014 319.969461 320.126926 319.969461 177.148447 0 319.969461-142.821014 319.969461-319.969461 0-177.305912-142.821014-320.126927-319.969461-320.126927zm0 159.984731c88.495491 0 159.984731 71.48924 159.984731 160.142196 0 88.495491-71.48924 159.984731-159.984731 159.984731-88.652956 0-160.142196-71.48924-160.142196-159.984731 0-88.652956 71.48924-160.142196 160.142196-160.142196zm0 0" fill="url(#h)" stroke="#333" stroke-linecap="round" stroke-width="11.338583" transform="scale(.0248071)"/><path d="m30.761719 26.453125c-4.398438 0-7.9375 3.539063-7.9375 7.9375s3.539062 7.9375 7.9375 7.9375c4.398437 0 7.9375-3.539063 7.9375-7.9375s-3.539063-7.9375-7.9375-7.9375zm0 4.761719c1.757812 0 3.175781 1.417968 3.175781 3.175781s-1.417969 3.175781-3.175781 3.175781c-1.761719 0-3.175781-1.417968-3.175781-3.175781s1.414062-3.175781 3.175781-3.175781zm0 1.585937c-.878907 0-1.589844.710938-1.589844 1.589844s.710937 1.585937 1.589844 1.585937c.878906 0 1.585937-.707031 1.585937-1.585937s-.707031-1.589844-1.585937-1.589844zm0 0" fill="url(#i)"/><path d="m30.761719 26.453125c-4.398438 0-7.9375 3.539063-7.9375 7.9375v.195313c.109375-4.300782 3.609375-7.730469 7.9375-7.730469s7.824219 3.429687 7.933593 7.730469c.003907-.066407.003907-.128907.003907-.195313 0-4.398437-3.539063-7.9375-7.9375-7.9375zm0 6.347656c-.878907 0-1.589844.710938-1.589844 1.589844 0 .066406.003906.136719.015625.199219.097656-.78125.761719-1.386719 1.574219-1.386719.808593 0 1.476562.605469 1.574219 1.386719.007812-.0625.011718-.132813.011718-.199219 0-.878906-.707031-1.589844-1.585937-1.589844zm-3.15625 1.953125c-.011719.117188-.019531.238282-.019531.359375 0 .070313 0 .136719.007812.203125 0-.054687.007812-.109375.011719-.160156.179687 1.585938 1.519531 2.8125 3.15625 2.8125s2.976562-1.226562 3.152343-2.8125c.007813.050781.011719.105469.015626.160156.003906-.066406.007812-.132812.007812-.203125 0-.121093-.007812-.242187-.023438-.359375-.175781 1.585938-1.515624 2.8125-3.152343 2.8125s-2.976563-1.226562-3.15625-2.8125zm0 0" fill="#fff" fill-opacity=".392157"/><path d="m30.761719 31.214844c-1.761719 0-3.175781 1.417968-3.175781 3.175781 0 .105469.003906.210937.015624.3125.15625-1.613281 1.503907-2.863281 3.160157-2.863281 1.652343 0 3.003906 1.25 3.160156 2.863281.007813-.101563.015625-.207031.015625-.3125 0-1.757813-1.417969-3.175781-3.175781-3.175781zm-7.933594 3.488281c-.003906.101563-.003906.207031-.003906.3125 0 3.082031 1.734375 5.742187 4.289062 7.058594.332031-.058594.660157-.125.984375-.199219-2.988281-1.058594-5.140625-3.847656-5.269531-7.171875zm15.863281 0c-.003906.148437-.015625.300781-.027344.449219l.035157-.046875c0-.03125 0-.058594 0-.089844 0-.105469-.003907-.210937-.007813-.3125zm-9.488281 0c-.019531.101563-.03125.207031-.03125.3125 0 .878906.710937 1.585937 1.589844 1.585937.878906 0 1.585937-.707031 1.585937-1.585937 0-.105469-.011718-.210937-.03125-.3125-.144531.726563-.785156 1.273437-1.554687 1.273437-.773438 0-1.414063-.546874-1.558594-1.273437zm0 0" fill-opacity=".235294"/><path d="m328.093669 63.860603c-46.912187 0-84.658583 37.746395-84.658583 84.658582s37.746396 84.658582 84.658583 84.658582c46.912186 0 84.658582-37.746395 84.658582-84.658582s-37.746396-84.658582-84.658582-84.658582zm0 50.786817c18.748209 0 33.871765 15.123555 33.871765 33.871765s-15.123556 33.871765-33.871765 33.871765c-18.789873 0-33.871766-15.123555-33.871766-33.871765s15.081893-33.871765 33.871766-33.871765zm0 16.915051c-9.374105 0-16.956714 7.582609-16.956714 16.956714s7.582609 16.915051 16.956714 16.915051c9.374104 0 16.915051-7.540946 16.915051-16.915051s-7.540947-16.956714-16.915051-16.956714zm0 0" fill="none" stroke="#212121" stroke-linecap="square" stroke-linejoin="bevel" stroke-width="3" transform="matrix(.093759 0 0 .093759 0 20.465622)"/></svg>

<?xml version="1.0" encoding="UTF-8"?>
<svg xmlns="http://www.w3.org/2000/svg" xmlns:xlink="http://www.w3.org/1999/xlink" width="48pt" height="48pt" viewBox="0 0 48 48" version="1.1">
<defs>
<radialGradient id="radial0" gradientUnits="userSpaceOnUse" cx="450.908936" cy="189.579361" fx="450.908936" fy="189.579361" r="21.166656" gradientTransform="matrix(0.000000261256,-0.117199,-0.210958,-0.000000152308,71.249998,95.392994)">
<stop offset="0" style="stop-color:rgb(0%,0%,0%);stop-opacity:0.313726;"/>
<stop offset="0.222222" style="stop-color:rgb(0%,0%,0%);stop-opacity:0.27451;"/>
<stop offset="1" style="stop-color:rgb(0%,0%,0%);stop-opacity:0;"/>
</radialGradient>
<radialGradient id="radial1" gradientUnits="userSpaceOnUse" cx="450.908936" cy="189.579361" fx="450.908936" fy="189.579361" r="21.166656" gradientTransform="matrix(-0.000000261256,0.117199,0.210958,0.000000152308,-19.155178,-11.291223)">
<stop offset="0" style="stop-color:rgb(0%,0%,0%);stop-opacity:0.313726;"/>
<stop offset="0.222222" style="stop-color:rgb(0%,0%,0%);stop-opacity:0.27451;"/>
<stop offset="1" style="stop-color:rgb(0%,0%,0%);stop-opacity:0;"/>
</radialGradient>
<radialGradient id="radial2" gradientUnits="userSpaceOnUse" cx="450.908936" cy="189.579361" fx="450.908936" fy="189.579361" r="21.166656" gradientTransform="matrix(-0.000000261256,-0.117199,0.210958,-0.000000152308,-19.155178,95.392994)">
<stop offset="0" style="stop-color:rgb(0%,0%,0%);stop-opacity:0.313726;"/>
<stop offset="0.222222" style="stop-color:rgb(0%,0%,0%);stop-opacity:0.27451;"/>
<stop offset="1" style="stop-color:rgb(0%,0%,0%);stop-opacity:0;"/>
</radialGradient>
<radialGradient id="radial3" gradientUnits="userSpaceOnUse" cx="450.908936" cy="189.579361" fx="450.908936" fy="189.579361" r="21.166656" gradientTransform="matrix(0.000000261256,0.117199,-0.210958,0.000000152308,71.249995,-11.291224)">
<stop offset="0" style="stop-color:rgb(0%,0%,0%);stop-opacity:0.313726;"/>
<stop offset="0.222222" style="stop-color:rgb(0%,0%,0%);stop-opacity:0.27451;"/>
<stop offset="1" style="stop-color:rgb(0%,0%,0%);stop-opacity:0;"/>
</radialGradient>
<linearGradient id="linear0" gradientUnits="userSpaceOnUse" x1="255.323059" y1="233.5" x2="255.323044" y2="254.666656" gradientTransform="matrix(0.0200401,0,0,0.093759,18.698079,20.158175)">
<stop offset="0" style="stop-color:rgb(0%,0%,0%);stop-opacity:0.27451;"/>
<stop offset="1" style="stop-color:rgb(0%,0%,0%);stop-opacity:0;"/>
</linearGradient>
<linearGradient id="linear1" gradientUnits="userSpaceOnUse" x1="254" y1="-168.666672" x2="254" y2="233.5" gradientTransform="matrix(3.779528,0,0,3.779528,0,812.59845)">
<stop offset="0" style="stop-color:rgb(87.843138%,87.843138%,87.843138%);stop-opacity:1;"/>
<stop offset="1" style="stop-color:rgb(74.117649%,74.117649%,74.117649%);stop-opacity:1;"/>
</linearGradient>
<linearGradient id="linear2" gradientUnits="userSpaceOnUse" x1="254" y1="117.083344" x2="254" y2="-52.25" gradientTransform="matrix(3.779528,0,0,3.779528,0,812.59845)">
<stop offset="0" style="stop-color:rgb(96.078432%,96.078432%,96.078432%);stop-opacity:1;"/>
<stop offset="1" style="stop-color:rgb(87.843138%,87.843138%,87.843138%);stop-opacity:1;"/>
</linearGradient>
<linearGradient id="linear3" gradientUnits="userSpaceOnUse" x1="1280" y1="1695.118164" x2="1280" y2="1295.118164" gradientTransform="matrix(0.0396912,0,0,0.0396912,-20.043953,-24.952917)">
<stop offset="0" style="stop-color:rgb(14.901961%,77.64706%,85.490197%);stop-opacity:1;"/>
<stop offset="1" style="stop-color:rgb(30.19608%,81.568629%,88.235295%);stop-opacity:1;"/>
</linearGradient>
</defs>
<g id="surface1">
<path style=" stroke:none;fill-rule:nonzero;fill:url(#radial0);" d="M 31.753906 42.050781 L 35.722656 42.050781 L 35.722656 40.066406 L 31.753906 40.066406 Z M 31.753906 42.050781 "/>
<path style=" stroke:none;fill-rule:nonzero;fill:url(#radial1);" d="M 20.339844 42.050781 L 16.371094 42.050781 L 16.371094 44.035156 L 20.339844 44.035156 Z M 20.339844 42.050781 "/>
<path style=" stroke:none;fill-rule:nonzero;fill:url(#radial2);" d="M 20.339844 42.050781 L 16.371094 42.050781 L 16.371094 40.066406 L 20.339844 40.066406 Z M 20.339844 42.050781 "/>
<path style=" stroke:none;fill-rule:nonzero;fill:url(#radial3);" d="M 31.753906 42.050781 L 35.722656 42.050781 L 35.722656 44.035156 L 31.753906 44.035156 Z M 31.753906 42.050781 "/>
<path style=" stroke:none;fill-rule:nonzero;fill:url(#linear0);" d="M 20.339844 41.554688 L 31.753906 41.554688 L 31.753906 44.035156 L 20.339844 44.035156 Z M 20.339844 41.554688 "/>
<path style="fill-rule:nonzero;fill:url(#linear1);stroke-width:11.338583;stroke-linecap:round;stroke-linejoin:miter;stroke:rgb(20%,20%,20%);stroke-opacity:1;stroke-miterlimit:4;" d="M 960.065849 175.101398 C 539.003674 175.101398 199.980913 514.124159 199.980913 935.186334 C 199.980913 1356.091044 539.003674 1695.113804 960.065849 1695.113804 C 1380.970559 1695.113804 1719.99332 1356.091044 1719.99332 935.186334 C 1719.99332 514.124159 1380.970559 175.101398 960.065849 175.101398 Z M 960.065849 775.044138 C 1048.56134 775.044138 1120.05058 846.533378 1120.05058 935.186334 C 1120.05058 1023.681825 1048.56134 1095.171065 960.065849 1095.171065 C 871.412893 1095.171065 799.923653 1023.681825 799.923653 935.186334 C 799.923653 846.533378 871.412893 775.044138 960.065849 775.044138 Z M 960.065849 775.044138 " transform="matrix(0.0248071,0,0,0.0248071,0,0)"/>
<path style=" stroke:none;fill-rule:nonzero;fill:rgb(0%,0%,0%);fill-opacity:0.196078;" d="M 23.816406 42.050781 C 13.371094 42.050781 4.960938 33.640625 4.960938 23.199219 C 4.960938 23.136719 4.960938 23.074219 4.960938 23.011719 C 5.0625 33.371094 13.433594 41.679688 23.816406 41.679688 C 34.199219 41.679688 42.570312 33.371094 42.667969 23.011719 C 42.667969 23.074219 42.667969 23.136719 42.667969 23.199219 C 42.667969 33.640625 34.257812 42.050781 23.816406 42.050781 Z M 23.816406 42.050781 "/>
<path style=" stroke:none;fill-rule:nonzero;fill:rgb(100%,100%,100%);fill-opacity:0.392157;" d="M 10.488281 9.871094 C 9.394531 10.988281 8.417969 12.261719 7.597656 13.679688 C 6.777344 15.101562 6.164062 16.582031 5.742188 18.089844 L 9.996094 19.226562 C 10.65625 16.839844 11.914062 14.699219 13.597656 12.980469 Z M 14.386719 13.769531 C 12.839844 15.351562 11.6875 17.316406 11.078125 19.519531 L 20.128906 21.941406 C 20.214844 21.664062 20.335938 21.386719 20.488281 21.121094 C 20.640625 20.859375 20.820312 20.617188 21.019531 20.402344 Z M 14.386719 13.769531 "/>
<path style=" stroke:none;fill-rule:nonzero;fill:rgb(100%,100%,100%);fill-opacity:0.588235;" d="M 23.816406 4.34375 C 13.371094 4.34375 4.960938 12.753906 4.960938 23.199219 C 4.960938 23.257812 4.960938 23.320312 4.960938 23.382812 C 5.0625 13.023438 13.433594 4.714844 23.816406 4.714844 C 34.199219 4.714844 42.570312 13.023438 42.667969 23.382812 C 42.667969 23.320312 42.667969 23.257812 42.667969 23.199219 C 42.667969 12.753906 34.257812 4.34375 23.816406 4.34375 Z M 23.816406 4.34375 "/>
<path style=" stroke:none;fill-rule:nonzero;fill:rgb(100%,100%,100%);fill-opacity:0.392157;" d="M 27.71875 24.269531 C 27.632812 24.550781 27.511719 24.824219 27.359375 25.089844 C 27.207031 25.355469 27.027344 25.59375 26.828125 25.808594 L 33.460938 32.445312 C 35.007812 30.863281 36.164062 28.894531 36.769531 26.695312 Z M 37.855469 26.984375 C 37.195312 29.375 35.9375 31.515625 34.25 33.234375 L 37.359375 36.34375 C 38.453125 35.226562 39.429688 33.953125 40.25 32.53125 C 41.070312 31.113281 41.683594 29.632812 42.105469 28.125 Z M 37.855469 26.984375 "/>
<path style=" stroke:none;fill-rule:nonzero;fill:rgb(12.941177%,12.941177%,12.941177%);fill-opacity:1;" d="M 23.816406 4.203125 C 13.292969 4.203125 4.820312 12.675781 4.820312 23.199219 C 4.820312 33.71875 13.292969 42.191406 23.816406 42.191406 C 34.335938 42.191406 42.808594 33.71875 42.808594 23.199219 C 42.808594 12.675781 34.335938 4.203125 23.816406 4.203125 Z M 23.816406 4.484375 C 34.183594 4.484375 42.527344 12.828125 42.527344 23.199219 C 42.527344 33.566406 34.183594 41.910156 23.816406 41.910156 C 13.445312 41.910156 5.101562 33.566406 5.101562 23.199219 C 5.101562 12.828125 13.445312 4.484375 23.816406 4.484375 Z M 23.816406 4.484375 "/>
<path style="fill-rule:nonzero;fill:url(#linear2);stroke-width:11.338583;stroke-linecap:round;stroke-linejoin:miter;stroke:rgb(20%,20%,20%);stroke-opacity:1;stroke-miterlimit:4;" d="M 960.065849 615.059407 C 782.759937 615.059407 639.938923 757.880422 639.938923 935.186334 C 639.938923 1112.334781 782.759937 1255.155795 960.065849 1255.155795 C 1137.214296 1255.155795 1280.03531 1112.334781 1280.03531 935.186334 C 1280.03531 757.880422 1137.214296 615.059407 960.065849 615.059407 Z M 960.065849 775.044138 C 1048.56134 775.044138 1120.05058 846.533378 1120.05058 935.186334 C 1120.05058 1023.681825 1048.56134 1095.171065 960.065849 1095.171065 C 871.412893 1095.171065 799.923653 1023.681825 799.923653 935.186334 C 799.923653 846.533378 871.412893 775.044138 960.065849 775.044138 Z M 960.065849 775.044138 " transform="matrix(0.0248071,0,0,0.0248071,0,0)"/>
<path style=" stroke:none;fill-rule:nonzero;fill:url(#linear3);" d="M 30.761719 26.453125 C 26.363281 26.453125 22.824219 29.992188 22.824219 34.390625 C 22.824219 38.789062 26.363281 42.328125 30.761719 42.328125 C 35.160156 42.328125 38.699219 38.789062 38.699219 34.390625 C 38.699219 29.992188 35.160156 26.453125 30.761719 26.453125 Z M 30.761719 31.214844 C 32.519531 31.214844 33.9375 32.632812 33.9375 34.390625 C 33.9375 36.148438 32.519531 37.566406 30.761719 37.566406 C 29 37.566406 27.585938 36.148438 27.585938 34.390625 C 27.585938 32.632812 29 31.214844 30.761719 31.214844 Z M 30.761719 32.800781 C 29.882812 32.800781 29.171875 33.511719 29.171875 34.390625 C 29.171875 35.269531 29.882812 35.976562 30.761719 35.976562 C 31.640625 35.976562 32.347656 35.269531 32.347656 34.390625 C 32.347656 33.511719 31.640625 32.800781 30.761719 32.800781 Z M 30.761719 32.800781 "/>
<path style=" stroke:none;fill-rule:nonzero;fill:rgb(100%,100%,100%);fill-opacity:0.392157;" d="M 30.761719 26.453125 C 26.363281 26.453125 22.824219 29.992188 22.824219 34.390625 C 22.824219 34.457031 22.824219 34.519531 22.824219 34.585938 C 22.933594 30.285156 26.433594 26.855469 30.761719 26.855469 C 35.089844 26.855469 38.585938 30.285156 38.695312 34.585938 C 38.699219 34.519531 38.699219 34.457031 38.699219 34.390625 C 38.699219 29.992188 35.160156 26.453125 30.761719 26.453125 Z M 30.761719 32.800781 C 29.882812 32.800781 29.171875 33.511719 29.171875 34.390625 C 29.171875 34.457031 29.175781 34.527344 29.1875 34.589844 C 29.285156 33.808594 29.949219 33.203125 30.761719 33.203125 C 31.570312 33.203125 32.238281 33.808594 32.335938 34.589844 C 32.34375 34.527344 32.347656 34.457031 32.347656 34.390625 C 32.347656 33.511719 31.640625 32.800781 30.761719 32.800781 Z M 27.605469 34.753906 C 27.59375 34.871094 27.585938 34.992188 27.585938 35.113281 C 27.585938 35.183594 27.585938 35.25 27.59375 35.316406 C 27.59375 35.261719 27.601562 35.207031 27.605469 35.15625 C 27.785156 36.742188 29.125 37.96875 30.761719 37.96875 C 32.398438 37.96875 33.738281 36.742188 33.914062 35.15625 C 33.921875 35.207031 33.925781 35.261719 33.929688 35.316406 C 33.933594 35.25 33.9375 35.183594 33.9375 35.113281 C 33.9375 34.992188 33.929688 34.871094 33.914062 34.753906 C 33.738281 36.339844 32.398438 37.566406 30.761719 37.566406 C 29.125 37.566406 27.785156 36.339844 27.605469 34.753906 Z M 27.605469 34.753906 "/>
<path style=" stroke:none;fill-rule:nonzero;fill:rgb(0%,0%,0%);fill-opacity:0.235294;" d="M 30.761719 31.214844 C 29 31.214844 27.585938 32.632812 27.585938 34.390625 C 27.585938 34.496094 27.589844 34.601562 27.601562 34.703125 C 27.757812 33.089844 29.105469 31.839844 30.761719 31.839844 C 32.414062 31.839844 33.765625 33.089844 33.921875 34.703125 C 33.929688 34.601562 33.9375 34.496094 33.9375 34.390625 C 33.9375 32.632812 32.519531 31.214844 30.761719 31.214844 Z M 22.828125 34.703125 C 22.824219 34.804688 22.824219 34.910156 22.824219 35.015625 C 22.824219 38.097656 24.558594 40.757812 27.113281 42.074219 C 27.445312 42.015625 27.773438 41.949219 28.097656 41.875 C 25.109375 40.816406 22.957031 38.027344 22.828125 34.703125 Z M 38.691406 34.703125 C 38.6875 34.851562 38.675781 35.003906 38.664062 35.152344 C 38.675781 35.136719 38.6875 35.121094 38.699219 35.105469 C 38.699219 35.074219 38.699219 35.046875 38.699219 35.015625 C 38.699219 34.910156 38.695312 34.804688 38.691406 34.703125 Z M 29.203125 34.703125 C 29.183594 34.804688 29.171875 34.910156 29.171875 35.015625 C 29.171875 35.894531 29.882812 36.601562 30.761719 36.601562 C 31.640625 36.601562 32.347656 35.894531 32.347656 35.015625 C 32.347656 34.910156 32.335938 34.804688 32.316406 34.703125 C 32.171875 35.429688 31.53125 35.976562 30.761719 35.976562 C 29.988281 35.976562 29.347656 35.429688 29.203125 34.703125 Z M 29.203125 34.703125 "/>
<path style="fill:none;stroke-width:3;stroke-linecap:square;stroke-linejoin:bevel;stroke:rgb(12.941177%,12.941177%,12.941177%);stroke-opacity:1;stroke-miterlimit:4;" d="M 328.093669 63.860603 C 281.181482 63.860603 243.435086 101.606998 243.435086 148.519185 C 243.435086 195.431372 281.181482 233.177767 328.093669 233.177767 C 375.005855 233.177767 412.752251 195.431372 412.752251 148.519185 C 412.752251 101.606998 375.005855 63.860603 328.093669 63.860603 Z M 328.093669 114.64742 C 346.841878 114.64742 361.965434 129.770975 361.965434 148.519185 C 361.965434 167.267395 346.841878 182.39095 328.093669 182.39095 C 309.303796 182.39095 294.221903 167.267395 294.221903 148.519185 C 294.221903 129.770975 309.303796 114.64742 328.093669 114.64742 Z M 328.093669 131.562471 C 318.719564 131.562471 311.136955 139.14508 311.136955 148.519185 C 311.136955 157.89329 318.719564 165.434236 328.093669 165.434236 C 337.467773 165.434236 345.00872 157.89329 345.00872 148.519185 C 345.00872 139.14508 337.467773 131.562471 328.093669 131.562471 Z M 328.093669 131.562471 " transform="matrix(0.093759,0,0,0.093759,0,20.465622)"/>
</g>
</svg>
